X:1
T:20 Mélodies
T:En chemin
T:à Eugène Cougoul
T:4. En chemin 
T:Holmès, Augusta
T:(Holmès)
T:Vingt Mélodies
T:OpenScore (CC0)
T:OpenScore (CC0)
T:OpenScore (CC0)
T:OpenScore (CC0)
T:OpenScore (CC0)
C:Holmès, Augusta
Z:(Holmès)
Z:OpenScore (CC0)
%%score 1 { ( 2 4 ) | ( 3 5 ) }
L:1/8
Q:1/4=80
M:4/4
K:F
V:1 treble nm="Chant\nVoice"
V:2 treble nm="Piano"
V:4 treble 
V:3 treble 
V:5 treble 
V:1
!p!"^Andante con moto" A2 c A G2 G2 | F2 A F E2 E2 | D2 E F C2 F2 | B4 A2 z2 | A2 c A G2 G2 | %5
w: O vo- ya- geur qui|si tris- te- ment Che-|mi- nes  dans la nuit|bru- ne,|Li- vre  ton  cœur à|
 F2 A F E2 E2 | D2 E F C2 A2 | G4 F2 z2 |!f! B2 B2 A2 G F | d2 d2 c2 c2 | B2 c2 A2 (GF) | %11
w: l'en- chan- te- ment Du|rêve et du  clair de|lu- ne.|Vois! les El- fes, au-|tour de toi, Fleu-|\- ri- ssent la clai- *|
 G4 G2 z2 |!f! B2 B2 A2 G F | d4 ^c4 | d2 A2 F2 G F | c4- c2 z2 || %16
w: riè- re;|Prends ce Lys de lu-|miè- re:|C'est ton scep- tre de|roi! _|
!p![Q:1/4=104]"^Andantino un poco agitato" c4- c C D B | A2 G ^F (A2 G2) |!f! c4- c C D B | %19
w: Non! _ je ne veux|rien, rien au mon- de|Que _ les che- veux|
 A2 G ^F (A2 G2) |!f! _e4- e F G d | c2 B A (c2 B2 | A2) z2!p![Q:1/4=98]"^rall." C D _E (c | %23
w: d'or de ma blon- de!|Non! _ je ne veux|rien, rien au mon- *|de Que les che- veux|
[Q:1/4=86] D2) =E A G4 ||[K:F][Q:1/4=104]"^a Tempo" F2 z2 z4 | z8 | z8 | z8 | z8 | z8 | %30
w: d'or de ma blon-|\-     \-     \-     \-     de!||||||
 z8[Q:1/4=95] |[Q:1/4=84] z8 ||[Q:1/4=80]"^Andante con moto. 1º Tempo."!p! A2 c A G2 G2 | %33
w: ||O vo- ya- geur, en-|
 F2 A F E2 E2 | D2 E F C2 F2 | (B4 A2) z2 | A2 c A G2 G2 | F2 A F E2 E E | (D2 E) F C2 A2 | %39
w: tends ces ac- cords Qui|mê- lent,  en des ra-|fa- les,|La voix ma- gique et|ten- dre des cors Et les|har- * pes tri- om-|
 (G4 F2) z2 |!f! B2 B2 A2 G F | d2 d2 c2 c2 |!mp! B2 c2 A2 (GF) |!mf! G4 G2 z2 |!f! B2 B2 A2 G F | %45
w: \- pha- les.|Cel- le qui t'ap- pa-|rait là- bas, De|frais glaï- euls coif- *|fé- e,|C'est Mor- ga- ne, la|
 (d4 ^c4) |!p! d2 A2 F2 G F | c4- c2 z2 ||!f![Q:1/4=104]"^Andantino un poco agitato" c4- c C D B | %49
w: fé- e!|Ou- vre lui tes  deux|bras! _|Non! _ je ne veux|
 A2 G ^F (A2 G2) |!f! c4- c C D B | A2 G ^F (A2 G2) |!f! _e4- e F G d | c2 B A (c2 B2 | %54
w: rien, rien au mon- de|Que _ les yeux pro-|fonds de ma blon- de!|Non! _ je ne veux|rien, rien au mon- *|
 A2) z2!p![Q:1/4=98]"^rall." C D _E (c | D2)[Q:1/4=86]"^rall." =E A G4 || %56
w: de Que les yeux pro-|\- fonds de ma blon-|
[Q:1/4=104]"^a Tempo." F2 z2 z4 |[M:4/4] z8 | z8 |[K:F][M:4/4] z8 | z8 |[M:4/4] z8 | %62
w: de!||||||
 z8[Q:1/4=98][Q:1/4=92] |[Q:1/4=86] z8 ||!p![Q:1/4=80]"^Andante con moto 1º Tempo" A2 c A G2 G2 | %65
w: ||O vo- ya- geur, un|
 F2 A F E2 E2 | D2 E F C2 F2 | (B4 A2) z2 | A2 c A G2 G2 | F2 A F E2 E2 | D2 E F C2 A2 | G4 F2 z2 | %72
w: fleu- ve d'a- zur Où|na- gent des for- mes|blan- ches,|Sous les clar- tés du|ciel sombre et pur Scin-|tille à tra- vers les|bran- ches.|
!p! B2 B2 A2 G F | d2 d2 c2 c2 | B2 c2 A2 (GF) | G4 G2 z2 |!p! B2 B2 A2 G F | d4 ^c4 | %78
w: Sur la rive où le|flot pâ- li En|mur- mu- rant dé- *|fer- le,|Dans des cou- pes de|per- le|
!p! d2 A2 F2 G F | c4- c2 z2 || %80
w: Bois la paix et l'ou-|bli! _|
!f![Q:1/4=104]"^Andantino un poco agitato"[Q:1/4=104]"_Andantino un poco agitato" c4- c C D B | %81
w: Non! _ je ne veux|
 A2 G ^F A2 G2 |!f! c4- c C D B | A2 G ^F (A2 G2) |!f! _e4- e F G d | c2 B A (c2 B2 | %86
w: rien, rien au mon- de|Que _ les chers bai-|sers de ma blon- de!|Non! _ je ne veux|rien, rien au mon- *|
 A2) z2!p![Q:1/4=98]"^rall. molto" C D[Q:1/4=92] _E[Q:1/4=86] (c | %87
w: \- de Que les chers bai-|
[Q:1/4=83] D2)[Q:1/4=80] E A[Q:1/4=78] (G4 |[Q:1/4=76] F2) z2 z4 | !fermata!z8 |] %90
w: sers de ma blon-|de!||
V:2
!pp!"^Andante con moto" ((!arpeggio![cfac']4 !arpeggio![gg']2)) z2 | %1
 ((!arpeggio![=Bdfa]4 !arpeggio![ee']2)) z2 | ((!arpeggio![FBdf]4 !arpeggio![cc']2)) z2 | %3
 (d2 e2 f4) |!pp! ((!arpeggio![cfac']4 !arpeggio![gg']2)) z2 | %5
 ((!arpeggio![=Bdfa]4 !arpeggio![ee']2)) z2 | ((!arpeggio![FBdf]4 !arpeggio![cc']2)) z2 | %7
 (d2 e2 f4) |!f! !arpeggio![dgbc']2 z2 !arpeggio![cfac']2 z2 | %9
 !arpeggio![dfgd']2 z2 !arpeggio![cegc']2 z2 |!f! !arpeggio![dgbd']2 z2 !arpeggio![fac'f']2 z2 | %11
 !arpeggio![g=bd'g']2 z2 !arpeggio![cegc']2 z2 | !arpeggio![dgbc']2 z2 !arpeggio![cfac']2 z2 | %13
 !arpeggio![fad'f']2 z2 !arpeggio![a^c'e'a']2 z2 | !arpeggio![fad'f']2 z2 !arpeggio![g=bd'g']2 z2 | %15
 !arpeggio![cegc']2 z2 z4 ||"^Andantino un poco agitato" z2!>(! ([F-A-c]2 [FAd]2)!>)! z2 | %17
 z2!>(! ([E-B-d]2 [EBc]2)!>)! z2 | z2!>(! ([F-A-c]2 [FAd]2)!>)! z2 | %19
 z2!>(! ([E-B-d]2 [EBc]2)!>)! z2 | z2!>(! ([A-_e-g]2 [Aef]2)!>)! z2 | z2!f! !>![Ff]4 !>![Ff]2- | %22
!p! [Ff]2- [Ff] z z4 |"_rall."!pp! [EGB]4- [EGB]2- [EGB] z || %24
[K:F]!p!"^a Tempo"!<(!{/c} ([cc']4- [cc']cd!<)!b | %25
!>(! !>!a2 g^f!>)!!>(!{/B} (!>![B-a]2 [Bg]2))!>)! |!f!!<(!{/c} ([cc']4- [cc']cd!<)!b | %27
!>(! !>!a2 g^f!>)!!>(!{/B} (!>![B-a]2 [Bg]2))!>)! |!f!{/_e} ([e_e']4- [ee']fgd' | %29
!>(! !>!c'2 ba!>)!!>(! (!>!c'2 !>!b2)!>)! |!p!!>(! ([fa-]2) [fa])!>)!!p! z z4 |!pp! [cebc']8 || %32
!pp!"^Andante con moto. 1º Tempo." ((!arpeggio![cfac']4 !arpeggio![gg']2)) z2 | %33
 ((!arpeggio![=Bdfa]4 !arpeggio![ee']2)) z2 | ((!arpeggio![FBdf]4 !arpeggio![cc']2)) z2 | %35
 (d2 e2 f4) |!pp! ((!arpeggio![cfac']4 !arpeggio![gg']2)) z2 | %37
 ((!arpeggio![=Bdfa]4 !arpeggio![ee']2)) z2 | ((!arpeggio![FBdf]4 !arpeggio![cc']2)) z2 | %39
 (d2 e2 f4) |!f! !arpeggio![dgbc']2 z2 !arpeggio![cfac']2 z2 | %41
 !arpeggio![dfgd']2 z2 !arpeggio![cegc']2 z2 |!mp! !arpeggio![dgbd']2 z2 !arpeggio![fac'f']2 z2 | %43
!mf! !arpeggio![g=bd'g']2 z2 !arpeggio![cegc']2 z2 | %44
!f! !arpeggio![dgbc']2 z2 !arpeggio![cfac']2 z2 | !arpeggio![fad'f']2 z2 !arpeggio![a^c'e'a']2 z2 | %46
!p! !arpeggio![fad'f']2 z2 !arpeggio![g=bd'g']2 z2 | !arpeggio![cegc']2 z2 z4 || %48
"^Andantino un poco agitato"!mf! z2!>(! ([F-A-c]2 [FAd]2)!>)! z2 | %49
 z2!>(! ([E-B-d]2 [EBc]2)!>)! z2 | z2!>(! ([F-A-c]2 [FAd]2)!>)! z2 | %51
 z2!>(! ([E-B-d]2 [EBc]2)!>)! z2 | z2!>(! ([A-_e-g]2 [Aef]2)!>)! z2 | %53
 z2!f!!>(! !>![Ff]4 !>![Ff]2-!>)! |!p! [Ff]2- [Ff] z z4 |"_rall."!pp! [EGB]4- [EGB]2- [EGB] z || %56
!p!"^a Tempo."!<(!{/c} ([cc']4- [cc']cdb!<)! | %57
[M:4/4]!>(! !>!a2 g^f!>)!!>(!{/B} (!>![B-a]2 [Bg]2))!>)! |!f!!<(!{/c} ([cc']4- [cc']cd!<)!b | %59
[K:F][M:4/4]!>(! !>!a2 g!>)!^f!>(!{/B} (!>![B-a]2 [Bg]2))!>)! |!f!{/_e} ([e_e']4- [ee']fgd' | %61
[M:4/4]!>(! !>!c'2 ba!>)!!>(! !>!c'2 !>!b2!>)! |!p! [fa]2- [fa]) z z4 |!pp! [cebc']8 || %64
!pp!"^Andante con moto 1º Tempo" ((!arpeggio![cfac']4 !arpeggio![gg']2)) z2 | %65
 ((!arpeggio![=Bdfa]4 !arpeggio![ee']2)) z2 | ((!arpeggio![FBdf]4 !arpeggio![cc']2)) z2 | %67
 (d2 e2 f4) |!pp! ((!arpeggio![cfac']4 !arpeggio![gg']2)) z2 | %69
 ((!arpeggio![=Bdfa]4 !arpeggio![ee']2)) z2 | ((!arpeggio![FBdf]4 !arpeggio![cc']2)) z2 | %71
 (d2 e2 f4) |!p! !arpeggio![dgbc']2 z2 !arpeggio![cfac']2 z2 | %73
 !arpeggio![dfgd']2 z2 !arpeggio![cegc']2 z2 | !arpeggio![dgbd']2 z2 !arpeggio![fac'f']2 z2 | %75
 !arpeggio![g=bd'g']2 z2 !arpeggio![cegc']2 z2 |!f! !arpeggio![dgbc']2 z2 !arpeggio![cfac']2 z2 | %77
 !arpeggio![fad'f']2 z2 !arpeggio![a^c'e'a']2 z2 | %78
!p! !arpeggio![fad'f']2 z2 !arpeggio![g=bd'g']2 z2 | !arpeggio![cegc']2 z2 z4 || %80
 z2!>(! ([F-A-c]2 [FAd]2)!>)! z2 | z2!>(! ([E-B-d]2 [EBc]2)!>)! z2 | %82
 z2!>(! ([F-A-c]2 [FAd]2)!>)! z2 | z2!>(! ([E-B-d]2 [EBc]2)!>)! z2 | %84
 z2!>(! ([A-_e-g]2 [Aef]2)!>)! z2 | z2!f! !>![Ff]4 !>![Ff]2- |!p! [Ff]2- [Ff] z z4 |!pp! (([EGB]8 | %88
 [FA]8-)) | [FA]2 z2 z4 |] %90
V:3
!ped! ([FA]4 [EG]4 | [DF]4 [CE]4 | [B,D]4 [A,C]4)!ped-up! | C8 | ([FA]4 [EG]4 | [DF]4 [CE]4 | %6
 [B,D]4 [A,C]4) |[K:bass] (([C,C]4 [F,,F,]4)) | %8
[K:treble]!ped! !arpeggio![CEGB]4!ped-up!!ped! !arpeggio![CFA]4!ped-up! | %9
!ped! !arpeggio![B,DB]4!ped-up!!ped! !arpeggio![CEG]4!ped-up! | %10
!ped! !arpeggio![CEGB]4!ped-up!!ped! !arpeggio![CFA]4!ped-up! | %11
!ped! !arpeggio![G,=B,DG]4!ped-up!!ped! !arpeggio![CEG]4!ped-up! | %12
!ped! !arpeggio![CEGB]4!ped-up!!ped! !arpeggio![CFA]4!ped-up! | %13
!ped! !arpeggio![A,DFA]4!ped-up!!ped! !arpeggio![A,^CEA]4!ped-up! | %14
!ped! !arpeggio![A,DFA]4!ped-up!!ped! !arpeggio![G,=B,DG]4!ped-up! | %15
!ped! !arpeggio![CEGB]4- [CEGB]2!ped-up! z2 || %16
[K:bass]!p!"_il canto marcato"!ped!!<(! (C,6 D,2!ped-up! |!ped! E,6!<)! B,2)!ped-up! | %18
!ped! (A,6 C,2!ped-up! |!ped! D,6 E,2)!ped-up! |!f!!ped! (F,6 _E2!ped-up! |!ped! D6 _D2)!ped-up! | %22
 [C,A,C]2- [C,A,C] z z4 | [C,,C,]4- [C,,C,]2- [C,,C,] z || %24
[K:F]!<(! (22:16:7(F,,/C,/F,/[K:treble] A,/C/!<)!F/)!ped! !>!A8!ped-up! | %25
[K:bass]{/[C,,C,]} (!>!_E4 !>!=E4) | %26
!<(! (22:16:7(F,,/C,/F,/[K:treble] A,/C/!<)!F/)!ped! !>!A8!ped-up! | %27
[K:bass]{/[C,,C,]} (!>!_E4 !>!=E4) |!<(! (22:16:7(F,,/C,/F,/[K:treble] A,/C/!<)!F/) !>!A8 | %29
[K:bass]{/[B,,,B,,]} (!>!D4 !>!_D4) |[K:treble] [CFA]2- [CFA] z"_una corda""^rall." (CD_Ec | %31
 D2 EA G4) || ([FA]4 [EG]4 | [DF]4 [CE]4 | [B,D]4 [A,C]4) | C8 | ([FA]4 [EG]4 | [DF]4 [CE]4 | %38
 [B,D]4 [A,C]4) |[K:bass] (([C,C]4 [F,,F,]4)) | %40
[K:treble]!ped! !arpeggio![CEGB]4!ped-up!!ped! !arpeggio![CFA]4!ped-up! | %41
!ped! !arpeggio![B,DB]4!ped-up!!ped! !arpeggio![CEG]4!ped-up! | %42
!ped! !arpeggio![CEGB]4!ped-up!!ped! !arpeggio![CFA]4!ped-up! | %43
!ped! !arpeggio![G,=B,DG]4!ped-up!!ped! !arpeggio![CEG]4!ped-up! | %44
!ped! !arpeggio![CEGB]4!ped-up!!ped! !arpeggio![CFA]4!ped-up! | %45
!ped! !arpeggio![A,DFA]4!ped-up!!ped! !arpeggio![A,^CEA]4!ped-up! | %46
!ped! !arpeggio![A,DFA]4!ped-up!!ped! !arpeggio![G,=B,DG]4!ped-up! | %47
!ped! !arpeggio![CEGB]4- [CEGB]2!ped-up! z2 ||[K:bass]!ped! (C,6 D,2!ped-up! | %49
!ped! E,6 B,2)!ped-up! |!f!!ped! (A,6 C,2!ped-up! |!ped!!<(! D,6 E,2)!ped-up!!<)! | %52
!f!!ped! (F,6 _E2!ped-up! |!ped!{/[B,,,B,,]} D6 _D2!ped-up! | [C,A,C]2-) [C,A,C] z z4 | %55
"_una corda" [C,,C,]4- [C,,C,]2- [C,,C,] z || %56
 (22:16:7(F,,/C,/F,/[K:treble] A,/C/F/)!ped! !>!A8!ped-up! | %57
[M:4/4][K:bass]{/[C,,C,]} (!>!_E4 !>!=E4) | %58
 (22:16:7(F,,/C,/F,/[K:treble] A,/C/F/)!ped! !>!A8!ped-up! | %59
[K:F][M:4/4][K:bass]{/[C,,C,]} (!>!_E4 !>!=E4) | (22:16:7(F,,/C,/F,/[K:treble] A,/C/F/) !>!A8 | %61
[M:4/4][K:bass]!ped!{/[B,,,B,,]} (!>!D4 !>!_D4!ped-up! | %62
[K:treble] [CFA]2- [CFA]) z"_una corda""^rall." (CD_Ec | D2 EA G4) || ([FA]4 [EG]4 | [DF]4 [CE]4 | %66
 [B,D]4 [A,C]4) | C8 | ([FA]4 [EG]4 | [DF]4 [CE]4 | [B,D]4 [A,C]4) |[K:bass] (([C,C]4 [F,,F,]4)) | %72
[K:treble]!ped! !arpeggio![CEGB]4!ped-up!!ped! !arpeggio![CFA]4!ped-up! | %73
!ped! !arpeggio![B,DB]4!ped-up!!ped! !arpeggio![CEG]4!ped-up! | %74
!ped! !arpeggio![CEGB]4!ped-up!!ped! !arpeggio![CFA]4!ped-up! | %75
!ped! !arpeggio![G,=B,DG]4!ped-up!!ped! !arpeggio![CEG]4!ped-up! | %76
!ped! !arpeggio![CEGB]4!ped-up!!ped! !arpeggio![CFA]4!ped-up! | %77
!ped! !arpeggio![A,DFA]4!ped-up!!ped! !arpeggio![A,^CEA]4!ped-up! | %78
!ped! !arpeggio![A,DFA]4!ped-up!!ped! !arpeggio![G,=B,DG]4!ped-up! | %79
!ped! !arpeggio![CEGB]4- [CEGB]2 z2!ped-up! || %80
[K:bass]"_marcato il canto"!pp!!ped!!<(! (C,6 D,2!ped-up! |!ped! E,6!<)! B,2)!ped-up! | %82
!f!!ped! (A,6 C,2!ped-up! |!ped!!<(! D,6 E,2)!ped-up!!<)! |!f!!ped! (F,6 _E2!ped-up! | %85
!ped! D6 _D2)!ped-up! | [C,A,C]2- [C,A,C] z z4 |"_una corda""^rall." [C,,C,]8 | %88
!ped!({F,,(C,)F,-)} [F,,C,F,A,]8- | [F,,C,F,A,]2!ped-up! z2 !fermata!z4 |] %90
V:4
 x8 | x8 | x8 | (([EB]4 [FA]4)) | x8 | x8 | x8 | [EB]4 [FA]4 | x8 | x8 | x8 | x8 | x8 | x8 | x8 | %15
 x8 || x8 | x8 | x8 | x8 | x8 | x8 | x8 | (D4 C2-) C z ||[K:F] x8 | x8 | x8 | x8 | x8 | %29
 x4 !arpeggio!f4- | x8 | x8 || x8 | x8 | x8 | (([EB]4 [FA]4)) | x8 | x8 | x8 | (([EB]4 [FA]4)) | %40
 x8 | x8 | x8 | x8 | x8 | x8 | x8 | x8 || x8 | x8 | x8 | x8 | x8 | x8 | x8 | (D4 C2-) C x || x8 | %57
[M:4/4] x8 | x8 |[K:F][M:4/4] x8 | x8 |[M:4/4] x4 !arpeggio!f4- | x8 | x8 || x8 | x8 | x8 | %67
 ([EB]4 [FA]4) | x8 | x8 | x8 | (([EB]4 [FA]4)) | x8 | x8 | x8 | x8 | x8 | x8 | x8 | x8 || x8 | %81
 x8 | x8 | x8 | x8 | x8 | x8 | (D4 C4-) | C8- | C2 x2 !fermata!x4 |] %90
V:5
 x8 | x8 | x8 | (G,4 F,4) | x8 | x8 | x8 |[K:bass] x8 |[K:treble] x8 | x8 | x8 | x8 | x8 | x8 | %14
 x8 | x8 ||[K:bass] !arpeggio!F,, z F,,2 z4 | !arpeggio!C,, z C,,2 z4 | !arpeggio!F,, z F,,2 z4 | %19
 !arpeggio!C,, z C,,2 z4 | !arpeggio!F,, z F,,2 z4 | !arpeggio![B,,,B,,]2 z2 z4 | x8 | x8 || %24
[K:F] x[K:treble] x221/32 |[K:bass] x8 | x[K:treble] x221/32 |[K:bass] x8 | x[K:treble] x221/32 | %29
[K:bass] x8 |[K:treble] x8 | C2- [CE]6 || x8 | x8 | x8 | (G,4 F,4) | x8 | x8 | x8 |[K:bass] x8 | %40
[K:treble] x8 | x8 | x8 | x8 | x8 | x8 | x8 | x8 ||[K:bass] !arpeggio!F,, z F,,2 z4 | %49
 !arpeggio!C,, z C,,2 z4 | !arpeggio!F,, z!>(! F,,2 z4!>)! | !arpeggio!C,, z C,,2 z4 | %52
 !arpeggio!F,, z F,,2 z4 | x8 | x8 | x8 || x[K:treble] x221/32 |[M:4/4][K:bass] x8 | %58
 x[K:treble] x221/32 |[K:F][M:4/4][K:bass] x8 | x[K:treble] x221/32 |[M:4/4][K:bass] x8 | %62
[K:treble] x8 | C2- [CE]6 || x8 | x8 | x8 | (G,4 F,4) | x8 | x8 | x8 |[K:bass] x8 |[K:treble] x8 | %73
 x8 | x8 | x8 | x8 | x8 | x8 | x8 ||[K:bass] !arpeggio!F,, z F,,2 z4 | !arpeggio!C,, z C,,2 z4 | %82
 !arpeggio!F,, z F,,2 z4 | !arpeggio!C,, z C,,2 z4 | !arpeggio!F,, z F,,2 z4 | %85
 !arpeggio![B,,,B,,]2 z2 z4 | x8 | x8 | x8 | x8 |] %90

